la/poo-solid.svg

<svg xmlns="http://www.w3.org/2000/svg" viewBox="0 0 32 32" height="1em" width="1em">
  <path d="M 17 6 C 14.162 6 11 8.6132812 11 12.363281 L 11 13 L 10 13 C 7.794 13 6 14.794 6 17 C 6 17.408 6.0645 17.811312 6.1875 18.195312 C 4.3455 18.758312 3 20.475 3 22.5 C 3 24.981 5.019 27 7.5 27 L 24.5 27 C 26.981 27 29 24.981 29 22.5 C 29 20.475 27.6555 18.757359 25.8125 18.193359 C 25.9365 17.809359 26 17.406047 26 16.998047 C 26 14.792047 24.206 12.998047 22 12.998047 L 20.931641 12.998047 C 20.674641 11.225047 19.738391 10.531906 19.025391 10.003906 C 18.278391 9.4499062 17.785141 9.0824688 17.994141 7.1054688 L 18.111328 6 L 17 6 z M 15.953125 8.1875 C 16.026125 10.0915 16.852937 10.880375 17.835938 11.609375 C 18.536938 12.130375 19 12.474 19 14 L 19 15 L 22 15 C 23.103 15 24 15.897 24 17 C 24 17.483 23.813562 17.954125 23.476562 18.328125 L 21.964844 20 L 24.5 20 C 25.879 20 27 21.121 27 22.5 C 27 23.879 25.879 25 24.5 25 L 7.5 25 C 6.121 25 5 23.879 5 22.5 C 5 21.121 6.121 20 7.5 20 L 10.035156 20 L 8.5234375 18.328125 C 8.1864375 17.954125 8 17.483 8 17 C 8 15.897 8.897 15 10 15 L 13 15 L 13 12.363281 C 13 10.362281 14.426125 8.7275 15.953125 8.1875 z M 12 17 A 1 1 0 0 0 12 19 A 1 1 0 0 0 12 17 z M 20 17 A 1 1 0 0 0 20 19 A 1 1 0 0 0 20 17 z M 14 20 C 14 21.105 14.895 22 16 22 C 17.105 22 18 21.105 18 20 L 14 20 z"/>
</svg>

<svg xmlns="http://www.w3.org/2000/svg" viewBox="0 0 32 32" height="1em" width="1em">
  <path d="M17 6c-2.838 0-6 2.613-6 6.363V13h-1c-2.206 0-4 1.794-4 4 0 .408.064.811.188 1.195A4.51 4.51 0 0 0 3 22.5C3 24.981 5.019 27 7.5 27h17c2.481 0 4.5-2.019 4.5-4.5a4.511 4.511 0 0 0-3.188-4.307A3.89 3.89 0 0 0 26 16.998c0-2.206-1.794-4-4-4h-1.068c-.257-1.773-1.194-2.466-1.907-2.994-.747-.554-1.24-.922-1.03-2.899L18.11 6H17zm-1.047 2.188c.073 1.903.9 2.692 1.883 3.421.7.521 1.164.865 1.164 2.391v1h3c1.103 0 2 .897 2 2 0 .483-.186.954-.523 1.328L21.965 20H24.5c1.379 0 2.5 1.121 2.5 2.5S25.879 25 24.5 25h-17A2.502 2.502 0 0 1 5 22.5C5 21.121 6.121 20 7.5 20h2.535l-1.512-1.672A1.988 1.988 0 0 1 8 17c0-1.103.897-2 2-2h3v-2.637c0-2 1.426-3.636 2.953-4.175zM12 17a1 1 0 0 0 0 2 1 1 0 0 0 0-2zm8 0a1 1 0 0 0 0 2 1 1 0 0 0 0-2zm-6 3a2 2 0 1 0 4 0h-4z"/>
</svg>
